X: 130
T:The Laird of Cockpen
G:song
M:6/8
L:1/8
Q:3/8=84
K:EMin
B,|E>FE G2G|F>DD D2F   |E>FE e2e|d>BB B2
c |dGB  dcB|A>BG F2G/A/|B>cB BAB|G>EE E2|]

The dorian/minor hexatonic is one of the commonest scales in Europe.
Here's an example from the Middle Ages:

